X:1
T: Miss Catherine Maxwell's Scots Measure
C: A. Mackintosh, from RSCDS Book 15
C: Arr. T. Traub 4-27-2003
R: Reel
%
K: G
M: 4/4
L: 1/8
dc|"G"B2 BA G3 B|"C"cBAG E2 dc|"G"B2 BA G2 E2|"D"F2 A2 A2 dc|"G"B>cBA G2 BA|"C"G>AGE "G"D3 C|"G"B,DGB "D"AFGE|"G"D2 GA G2 ||
Bc|"G"dBGB dBgd|"C"ecGc ecgf|"G"edcB "Am"cBAG|"D"F2 A2 A2 Bc|"G"dBec dBcA|"D"BGAF "C"GEDC|"G"B,DGB "D"AFGE|"G"D2 GA G2 |]
